X:13
T:Gospel Verse, Easter III
M:6/8
L:1/8
K:E min
V:1 clef=treble
[V:1] "Em"EGA BAG | "D"AGF "Em"E3 | "Em"EEF EDE | (GF)E "Bm"B,3 | "D"FGF "Em"E3 ||
w: Lord, Je-sus, o-pen the | Scrip-tures to us. | Make our hearts burn while you | speak_ to us. | Al-le-lu-ia.|

